X:1
T:Savior, Like A Shepherd Lead Us
T:Savior, Like A Shepherd Lead Us
T:For NREC 2019
T:William B. Bradbury (1816-1868)
T:Dorothy A. Trupp (1779-1847)
C:William B. Bradbury (1816-1868)
Z:Dorothy A. Trupp (1779-1847)
%%score 1 [ ( 2 3 ) ( 4 5 ) ]
L:1/8
Q:1/4=96
M:4/4
K:Eb
V:1 treble transpose=24 nm="Glockenspiel" snm="Glock."
V:2 treble nm="Violin I"
V:3 treble 
V:4 bass nm="Violoncello"
V:5 bass 
V:1
 [EB]8 | z4 GEGB | [DB]8 | [Ge]2 eB BAGF | [EG]8 | [Ge]4 GEGB | [DB]8 | [Ge]2 eB BAGB | A4 [Ae]4 | %9
 B4 [Ge]4 | z2 e2 d2 B2 | B6 _d2 | c4 [Ae]4 | B4 [Ge]4 | e4 B2 A2 | G8 |] %16
V:2
 G2 G2 GFGA | (B2 e2) (B2 G2) | F2 G2 AcBA | G8 | G2 G2 GFGA | (B2 e2) (B2 G2) | F2 G2 AcBA | %7
 G6 BB | c2 e4 dc | B2 G4 GG | F2 c2 B2 A2 | G6 BB | c2 e4 dc | B2 e4 EF | G2 B2 A3 F | E8 |] %16
V:3
 E2 E2 EDEF | G4 (G2 E2) | D2 E2 FAGF | E8 | E2 E2 EDEF | G4 (G2 E2) | D2 E2 FAGF | E6 GG | %8
 A2 c4 BA | G2 E4 EE | D2 A2 G2 F2 | E6 GG | A2 c4 BA | G2 G4 EE | E2 G2 F3 D | B,8 |] %16
V:4
 B,2 B,2 B,B,B,B, | B,4 (E2 B,2) | B,2 B,2 B,B,B,B, | B,8 | B,2 B,2 B,B,B,B, | B,4 (E2 B,2) | %6
 B,2 B,2 B,B,B,B, | B,6 EE | E2 E4 EE | E2 B,4 B,B, | B,2 B,2 B,2 B,2 | B,6 EE | E2 E4 EE | %13
 E2 B,4 G,A, | B,2 B,2 B,3 A, | G,8 |] %16
V:5
 E,2 E,2 E,A,G,F, | E,4 E,4 | B,,2 B,,2 B,,B,,B,,B,, | E,8 | E,2 E,2 E,A,G,F, | E,4 E,4 | %6
 B,,2 B,,2 B,,B,,B,,B,, | E,6 E,E, | A,2 A,4 A,A, | E,2 E,4 E,E, | B,,2 B,,2 B,,2 B,,2 | E,6 E,E, | %12
 A,2 A,4 A,A, | E,2 E,4 E,E, | E,2 E,2 B,,3 B,, | E,8 |] %16

